X:2807
T:Mrs Hill's Delight
P:Mrs Hill's Delight
C:Clarke's Collection
R:Reel (8x32)
B:RSCDS 28-7
Z:Anselm Lingnau <anselm@strathspey.org>
M:2/4
L:1/8
K:F
|:c|"F"ff "C7"gg|"F"f/e/d/c/ cd/e/|"Dm"ff "Gm"gg|ba "C7"gc|
    "F"ff "C7"gg|"F"f/e/d/c/ cd/e/|"Bb"ff "C7"g/f/g/a/|"F"[f3A3]:|
|:a/b/|"F"c'c' aa|"C7"bb g2|"Dm"af "G"dg|"C"f/e/g/e/ "C7"c a/b/|
    "F"c'c' aa|"C7"bb g2|"Dm"a/f/"Gm"d/g/ "C7"fe|"F"[f3A3]:| 

